!!!COM: Beethoven, Ludwig van
!!!CDT: 1770///-1827///
!!!OTL: Piano Sonata no. 5 in C Minor
!!!ODT: 1795///-1797///
!!!ODE: &agrave; la Comtesse de Browne
!!!OMD: Allegro molto e con brio
!!!OPS: 10
!!!ONM: 1
!!!OMV: 1
!!!AGN: Sonata
**kern	**kern	**dynam
*staff2	*staff1	*staff1/2
*Ipiano	*Ipiano	*Ipiano
*>[A,A,B]	*>[A,A,B]	*>[A,A,B]
*>A	*>A	*>A
*clefF4	*clefG2	*
*k[b-e-a-]	*k[b-e-a-]	*
*c:	*c:	*
*M3/4	*M3/4	*
*MM160	*MM160	*
=1-	=1-	=1-
4.C 4.E- 4.G 4.c	4.e- 4.g 4.cc	f
8r	16r	.
.	(16gLK	.
4r	8.ee-	.
.	16ccJk	.
=2	=2	=2
2.r	8.ggL	.
.	16ee-k	.
.	8.ccc	.
.	16ggJk	.
.	4eee-')	.
=3	=3	=3
4r	4eee-'	.
4r	4r	.
*clefG2	*	*
4c' 4e-'	4g' 4cc'	p
=4	=4	=4
(2c 2e-	[2g\ (2cc\	.
4d) 4f	4g\] 4bn\)	.
*clefF4	*	*
=5	=5	=5
4.D 4.F 4.A- 4.Bn 4.d	4.f 4.a- 4.bn	f
8r	16r	.
.	(16bLK	.
4r	8.ff	.
.	16ddJk	.
=6	=6	=6
2.r	8.bbnL	.
.	16ffk	.
.	8.ddd	.
.	16bbJk	.
.	4fff')	.
=7	=7	=7
4r	4fff'	.
4r	4r	.
*clefG2	*	*
4d' 4f' 4a-'	4bn' 4dd'	p
!!LO:LB:g=original
=8	=8	=8
(2d 2f 2a-	2bn (2dd	.
4e-) 4g	4cc)	.
=9	=9	=9
.	(32gqLLL	.
.	32ccq	.
.	32ee-qJJJ	.
4r	()4.gg	.
4r	.	.
.	8ff	.
*clefF4	*	*
4E- 4G (4c	4ee-	.
=10	=10	=10
2F 2A- 2Bn	2dd	.
4E- 4G 4c)	4cc)	.
=11	=11	=11
.	(32gqLLL	.
.	32ccq	.
.	32ee-qJJJ)	.
4r	(4.gg	.
4r	.	.
.	8ff	.
*clefG2	*	*
(4e- 4g	4cc 4ee-	.
=12	=12	=12
2f 2a-	2bn 2dd	.
4e-) 4g	4cc)	.
=13	=13	=13
.	((32gqLLL	.
.	32ccq	.
.	32ee-qJJJ	.
4r	(4.g 4.gg))	rfz
4r	.	.
.	8f 8ff	.
*clefF4	*	*
4E- 4G (4c	[4e-\ [4ee-\)	.
=14	=14	=14
2F 2A- 2Bn	4e-\] (4ee-\]	.
.	4d'\ 4dd'\)	.
4E- 4G	[4c [4cc	.
=15	=15	=15
2D 2F	(4c] 4cc]	.
.	4Bn') 4bn'	.
4C 4E-	[4A- [4a-	.
!!LO:LB:g=original
=16	=16	=16
4BBn\ 4D\)	(4A-] 4a-]	.
4r	4G') 4g'	.
4r	4r	.
=17	=17	=17
4r	4r	.
!	!	!LO:DY:rj
4r	(12BnL	pp
.	12d	.
.	12fJ	.
4BBn 4D 4F (4A-	12a-L	.
.	12g	.
.	12fJ	.
=18	=18	=18
4C' 4E-' 4G')	4e-')	.
4r	4r	.
4r	4r	.
=19	=19	=19
4r	4r	.
4r	(12FL	.
.	12A-	.
.	12dJ	.
(4FF 4AA- 4D	12fL	.
.	12e-	.
.	12dJ	.
=20	=20	=20
4GG') 4C' 4E-'	4c')	.
4r	4r	.
4r	4r	.
=21	=21	=21
4r	4r	.
!	!	!LO:DY:rj
4r	(12GL	ff
.	12Bn	.
.	12dJ	.
4GGG' 4GG'	12fL	.
.	12d	.
.	12BJ)	.
=22	=22	=22
4.CC 4.EE- 4.GG 4.C	4.E-< 4.G< 4.c	f
8r	16r	.
.	(16cLK	.
4r	8.g	.
.	16e-Jk	.
!!LO:LB:g=original
=23	=23	=23
4r	8.ccL	.
.	16gk	.
4r	8.ee-	.
.	16ccJk)	.
4C' 4E-' 4G'	4g' 4gg'	.
=24	=24	=24
4BBn' 4D' 4G'	4g' 4gg'	.
4r	8.r	.
.	(16BnLK	.
4r	8.g	.
.	16dJk	.
=25	=25	=25
4r	8.bnL	.
.	16gk	.
4r	8.dd	.
.	16bJk)	.
4BBn' 4D' 4G'	4g' 4gg'	.
=26	=26	=26
4C' 4E-' 4G'	4g' 4gg'	.
4r	8.r	.
.	(16e-LK	.
4r	8.g	.
.	16e-Jk	.
=27	=27	=27
4r	8.ccL	.
.	16gk	.
4r	8.ee-	.
.	16cck	.
4E-' 4G' 4c'	8.gg	.
.	16ee-Jk)	.
=28	=28	=28
4F' 4A-' 4d'	4dd'	ff
4r	4fff'	.
4r	4r	.
=29	=29	=29
4G' 4Bn' 4d'	4bn'	ff
4r	4ddd'	.
4r	4r	.
=30	=30	=30
4C' 4E-' 4G' 4c'	4cc'	ff
4r	4ccc'	.
4r	4r	.
*clefG2	*	*
!!LO:LB:g=original
=31	=31	=31
2.r	2.r	.
=32	=32	=32
!	!	!LO:DY:a=2
[2.e-	2.r	fp
=33	=33	=33
*	*^	*
(2.d- 2.e-_	4r	4ryyy	.
.	(4g	2g	.
.	4ee-)	.	.
=34	=34	=34	=34
2.c 2.e-]	2ee-	2.a-	.
.	[4ee-	.	.
=35	=35	=35	=35
2.B- 2.d-	(4ee-]	2.g	.
.	4ff	.	.
.	[4dd-)	.	.
=36	=36	=36	=36
2.A- 2.e-)	(4dd-]	2.a-	.
.	4bn	.	.
.	4cc)	.	.
=37	=37	=37	=37
!	!	!	!LO:DY:b=2
(2.b-X [2.cc	4ry	4ryy	fp
.	(4een	2ee	.
.	4ccc)	.	.
=38	=38	=38	=38
2.a- 2.cc]	2ccc	2.ff	.
.	[4ccc	.	.
=39	=39	=39	=39
2.g 2.b-	(4ccc]	2.een	.
.	4ddd-	.	.
.	[4bb-)	.	.
=40	=40	=40	=40
2.f 2.a-	(4bb-]	2.cc	.
.	4gg	.	.
.	4aa-)	.	.
!!LO:LB:g=original
=41	=41	=41	=41
!	!	!	!LO:DY:b=2
2.g- [2.a-	4ry	4ryy	fp
.	(4ccyy	2cc	.
.	4aa-)	.	.
=42	=42	=42	=42
2.f 2.a-]	2aa-	2.dd-	.
.	[4aa-	.	.
=43	=43	=43	=43
2.e- 2.g-	(4aa-]	2.cc	.
.	4bb-	.	.
.	[4gg-)	.	.
=44	=44	=44	=44
2.d- 2.f	(4gg-]	2.a-	<
.	4een	.	.
.	[4ff)	.	.
=45	=45	=45	=45
2.c- 2.e-	(4ff]	2.an	.
.	4gg-	.	.
.	[4ee-)	.	[
*clefF4	*	*	*
=46	=46	=46	=46
2.B-	(4ee-]	2.f	>
.	4ee-	.	.
.	[4ddn)	.	.
=47	=47	=47	=47
2.An)	(4dd]	2g-	.
.	4ee-	.	.
.	4g-)	4e-	]]
=48	=48	=48	=48
*^	*	*	*
4r	[2.BB-	4f	4d	.
(4F	.	4r	4ryyy	.
4Gn	.	4r	4ryyy	.
*	*	*v	*v	*
=49	=49	=49	=49
4A-X	2.BB-]	4r	.
4En	.	4cc	.
4F	.	4cc	.
=50	=50	=50	=50
4G	[2.BB-	(4cc	.
4D	.	4b-)	.
4E-X)	.	4r	.
!!LO:LB:g=original
=51	=51	=51	=51
(4F	2.BB-]	4r	.
4C	.	4a-	.
4D	.	4a-	.
=52	=52	=52	=52
4E-	[2.BB-	(4a-	.
4F	.	4g)	.
4G)	.	4r	.
=53	=53	=53	=53
(4A-	2.BB-]	8r	.
.	.	(8ccL	.
4En	.	8bn	.
.	.	8cc	.
4F	.	8dd	.
.	.	8ccJ)	.
=54	=54	=54	=54
4G	[2.BB-	8r	.
.	.	(8b-XL	.
4D	.	8an	.
.	.	8b-	.
4E-X	.	8cc	.
.	.	8b-J)	.
=55	=55	=55	=55
4F	2.BB-]	8r	.
.	.	(8a-XL	.
4C	.	8g	.
.	.	8a-	.
4D)	.	8b-	.
.	.	8a-J)	.
*v	*v	*	*
=56	=56	=56
8E-L	[2.g	.
8B-	.	.
8G	.	.
8B-	.	.
8F	.	.
8B-J	.	.
=57	=57	=57
8E-L	(4.g]	.
8B-	.	.
8F	.	.
8B-	8b-	.
8G	4ee-)	.
8B-J	.	.
=58	=58	=58
8FL	(2.ee-	.
8B-	.	.
8G	.	.
8B-	.	.
8A-	.	.
8B-J	.	.
!!LO:LB:g=original
=59	=59	=59
8FL	4dd')	.
8B-	.	.
8G	4r	.
8B-	.	.
8A-	4r	.
8B-J	.	.
=60	=60	=60
8DL	[2.b-	.
8B-	.	.
8F	.	.
8B-	.	.
8E-	.	.
8B-J	.	.
=61	=61	=61
!	!LO:TURN:lacc=n	!
8DL	(4.b-sSSs]	.
8B-	.	.
8E-	.	.
8B-	8ff	.
8F	4aa-X)	.
8B-J	.	.
=62	=62	=62
8E-L	(2.aa-	.
8B-	.	.
8F	.	.
8B-	.	.
8G	.	.
8B-J	.	.
=63	=63	=63
8E-L	4gg')	.
8B-	.	.
8F	4r	.
8B-	.	.
8G	4r	.
8B-J	.	.
=64	=64	=64
8E-L	8g'L	.
8B-	8a-'	.
8G	8b-'	.
8B-	8cc'	.
8E-	8dd'	.
8B-J	8ee-'J	.
=65	=65	=65
8E-L	8ff'L	.
8B-	8gg'	.
8G	8aa-'	.
8B-	8bb-'	.
8E-	8ccc'	.
8B-J	8ddd'J	.
!!LO:LB:g=original
=66	=66	=66
8FL	(2.eee-	sf
8B-	.	.
8A-	.	.
8B-	.	.
8F	.	.
8B-J	.	.
=67	=67	=67
8FL	4ddd')	.
8B-	.	.
8A-	4r	.
8B-	.	.
8F	4r	.
8B-J	.	.
=68	=68	=68
8DL	8B-'L	.
8B-	8c'	.
8F	8d'	.
8B-	8e-'	.
8D	8f'	.
8B-J	8g'J	.
=69	=69	=69
8DL	8a-'L	.
8B-	8b-'	.
8F	8cc'	.
8B-	8dd'	.
8D	8ee-'	.
8B-J	8ff'J	.
=70	=70	=70
8r	2.gg	.
8E-L	.	<
8D	.	.
8E-	.	.
8D	.	.
8E-J	.	.
=71	=71	=71
8GGL<	2eee-	.
8E-	.	.
8AA-	.	.
8E-	.	.
8BB-	4G	.
8E-J	.	.
=72	=72	=72
8AA-L<	2.A-z>	.
8E-	.	.
8BB-	.	.
8E-	.	.
8C	.	.
8E-J	.	.
!!LO:LB:g=original
=73	=73	=73
8AAnL<	2.Anz>	.
8E-	.	.
8BB-	.	.
8E-	.	.
8C	.	.
8E-J	.	.
=74	=74	=74
8BB-L	2.B-z>	.
8G	.	.
8E-	.	.
8G	.	.
8BB-	.	.
8GJ	.	.
=75	=75	=75
8BB-L	2.A-XT	.
8F	.	.
8D	.	.
8F	.	.
8BB-	.	.
8FJ	.	.
.	(16GqLL	.
.	16A-qJJ)	.
=76	=76	=76
4EE- 4E-	8GL	.
.	8B-	.
4r	8e-	.
.	8B-	.
4r	8e-	.
.	8gJ	.
=77	=77	=77
2.r	8b-L	.
.	8g	.
.	8b-	.
.	8ee-	.
.	8gg	.
.	8bb-J	.
=78	=78	=78
8GGL<	4eee-	f
8E-	.	.
8AA-	4r	.
8E-	.	.
8BB-	[4e-z	.
8E-J	.	.
=79	=79	=79
8GGL<	(2e-]	.
8E-	.	.
8AA-	.	.
8E-	.	.
8BB-	4G	.
8E-J	.	.
!!LO:LB:g=original
=80	=80	=80
8AA-L<	2A-)	.
8E-	.	.
8BB-	.	.
8E-	.	.
8C	(4e-z	.
8E-J	.	.
=81	=81	=81
8AAnL<	2An)	.
8E-	.	.
8BB-	.	.
8E-	.	.
8C	(4e-z	.
8E-J	.	.
=82	=82	=82
(8BB-L<	(8B-L)	<
8E-	8e-	.
8D	8d	.
8E-	8e-	.
8BBn	8Bn	.
8E-J	8e-J	.
=83	=83	=83
8CL<	8cL	.
8E-	8e-	.
8D	8d	.
8E-	8e-	.
8AAn	8An	.
8E-J)	8e-J)	.
=84	=84	=84
(8BB-L<	(8B-L	ff
8E-	8e-	.
8D-	8d-	.
8E-	8e-	.
8BBn	8Bn	.
8E-J	8e-J	.
=85	=85	=85
8CL<	8cL	.
8E-	8e-	.
8Dn	8dn	.
8E-	8e-	.
8AAn	8An	.
8E-J)	8e-J)	.
=86	=86	=86
4BB-'	4B-	.
4BB-' 4E-' 4G'	8.r	.
.	(16e-LK	.
4r	8.b-	.
.	16gJk)	.
!!LO:LB:g=original
=87	=87	=87
4r	4ee-'z	.
4C' 4E-' 4F#'	8.r	.
.	(16e-LK	.
4r	8.an	.
.	16f#Jk)	.
=88	=88	=88
4r	4ee-'z	.
4BB-' 4E-' 4G'	8.r	.
.	(16e-LK	.
4r	8.b-	.
.	16gJk)	.
=89	=89	=89
4r	4ee-'z	.
4AAn' 4E-' 4F#' 4An'	8.r	.
.	(16ccLK	.
4r	8.ff#	.
.	16ee-Jk)	.
=90	=90	=90
4r	(4.gg	ff
4BB-' 4E-' 4G' 4B-'	.	.
.	8ee-)	.
4r	(8ee-L	.
.	8b-J)	.
=91	=91	=91
2.r	(8b-L	.
.	8g)	.
.	(8g	.
.	8e-)	.
.	(8e-	.
.	8B-J)	.
=92	=92	=92
2.rGG	(8B-<L	.
.	8G<)	.
.	(8G<	.
.	8E-<)	.
.	(8E-<	.
.	8BB-<J)	.
=93	=93	=93
!	!	!LO:DY:b=2:rj
2.BBB- 2.BB-	4re<	ff
.	4re<	.
.	4F< 4A-< [4B- (>4dz>	.
=94	=94	=94
*^	*	*
4ryyy	(4EE-	4G< 4B-] 4e-)	.
[>2BB-/	4BB-	4r	fp
.	4AAn	4r	.
!!LO:LB:g=original
=95	=95	=95	=95
*	*	*^	*
2.BB-]	4AA-	4ry	4ryy	.
.	4GG	4b-	4d 4f 4a-	p
.	4FF)	4b-	4d 4f 4a-	.
*v	*v	*	*	*
=96	=96	=96	=96
(4EE-	(4cc	2e- 2g	.
4GG	4b-)	.	.
4BB-	4r	4ryyy	.
=97	=97	=97	=97
4BBB-	4r	4ryyy	.
4FF	4dd	4f 4a-	.
4BB-)	4dd	4f 4a-	.
=98	=98	=98	=98
*^	*	*	*
4ryy	(<4EE-	(4ff	2g 2b-	.
!	!	!	!	!LO:DY:a=2
[>2BB-	4BB-	4ee-)	.	fp
.	4AAn	4r	4ryyy	.
=99	=99	=99	=99	=99
2.BB-]	4AA-X	4ry	4ryy	.
.	4GG	4b-	4a- 4f 4d	.
.	4FF)	4b-	4a- 4f 4d	.
*v	*v	*	*	*
=100	=100	=100	=100
(4EE-	(4cc	2e- 2g	.
4GG	4b-)	.	.
4BB-	4ry	4ryy	.
*	*v	*v	*
=101	=101	=101
4BBB-	4r	.
!	!	!LO:DY:rj
4FF	4F 4A- 4d	p
4BB-)	4F 4A- 4d	.
=102	=102	=102
*	*^	*
(4EE-	(4f	2G 2B-	.
4GG	4e-)	.	.
4BB-	4r	4ryyy	.
*	*v	*v	*
=103	=103	=103
4BBB-	4r	.
4FF	4F 4A- 4d	.
4BB-)	4F 4A- 4d	.
=104	=104	=104
(<4EE-	2.A- 2.d ((2.f	.
4GG	.	.
4BB-	.	.
=105	=105	=105
4E-)	4G 4B- 4e-))	.
4r	4r	.
4r	4r	.
!!LO:LB:g=original
=106:|!	=106:|!	=106:|!
*>B	*>B	*>B
4.C 4.En 4.G 4.c	4.en 4.g 4.cc	f
8r	16r	.
.	(16gLK	.
4r	8.een	.
.	16ccJk	.
=107	=107	=107
2.r	8.ggL	.
.	16eenk	.
.	8.ccc	.
.	16ggJk	.
.	4eeen')	.
=108	=108	=108
4r	4eeen'	.
4r	4r	.
*clefG2	*	*
4en' 4g'	4cc' 4een'	p
=109	=109	=109
(2en 2g	2cc (2een	.
4f) 4a-	4bn 4dd)	.
=110	=110	=110
4.f 4.a-	4.bn 4.dd	.
8r	16r	.
.	(16bLK	f
4r	8.ff	.
.	16ddJk	.
=111	=111	=111
2.r	8.bbnL	.
.	16ffk	.
.	8.ddd	.
.	16bbJk	.
.	4fff')	.
=112	=112	=112
4r	4fff'	.
4r	4r	.
4f' 4a-'	4dd' 4ff'	p
!!LO:LB:g=original
=113	=113	=113
(2f 2a-	2dd (2ff	.
4g) 4b-X	4dd- 4een)	.
=114	=114	=114
4.g 4.b-	4.dd- 4.een	.
8r	16r	.
!	!	!LO:DY:rj
.	(16b-LK	f
4r	8.ee	.
.	16dd-Jk	.
=115	=115	=115
2.r	8.ggL	.
.	16eenk	.
.	8.bb-	.
.	16ggJk	.
.	4ddd-')	.
=116	=116	=116
2.r	4g'	.
.	4bb-'	.
.	4r	.
=117	=117	=117
2.r	4en'	.
.	4gg'	.
.	4r	.
*clefF4	*	*
=118	=118	=118
8FL	2.f 2.ff	p
8c	.	.
8A-	.	.
8c	.	.
8F	.	.
8cJ	.	.
=119	=119	=119
8FL	2cc 2ccc	.
8c	.	.
8A-	.	.
8c	.	.
8F	4cc 4ccc	.
8cJ	.	.
!!LO:LB:g=original
=120	=120	=120
8GL	4cc (4ccc	.
8c	.	.
8B-X	4bn 4bbn	.
8c	.	.
8G	4dd- 4ddd-	.
8cJ	.	.
=121	=121	=121
8EnL	4cc 4ccc	.
8c	.	.
8G	4b-X 4bb-X	.
8c	.	.
8E	4g 4gg)	.
8cJ	.	.
=122	=122	=122
8CL	2en\ (2een\	<
8c	.	.
8En	.	.
8c	.	.
8G	4g 4gg	.
8cJ	.	[[
=123	=123	=123
8EnL	2cc 2ccc	>
8c	.	.
8G	.	.
8c	.	.
8B-	4g 4gg)	.
8cJ	.	]]
=124	=124	=124
8FL	2.b- ((2.bb-	.
8c	.	.
8A-	.	.
8c	.	.
8F	.	.
8cJ	.	.
=125	=125	=125
8FL	4a- 4aa-))	.
8c	.	.
8En	4r	.
8F	.	.
8E-	4an (4aan	.
8FJ	.	.
=126	=126	=126
8D-L	2.b- 2.bb-)	<
8F	.	.
8C	.	.
8F	.	.
8D-	.	.
8FJ	.	.
!!LO:LB:g=original
=127	=127	=127
8BB-L	2ff 2fff	.
8F	.	.
8C	.	.
8F	.	.
8D-	4ff 4fff	.
8FJ	.	[
=128	=128	=128
8CL	4ff (4fff	>
8F	.	.
8E-X	4een 4eeen	.
8F	.	.
8C	4gg- 4ggg-	.
8FJ	.	.
=129	=129	=129
8AAnL<	4ff 4fff	.
8F	.	.
8C	4ee-X 4eee-X	.
8F	.	.
8AA	4cc 4ccc)	.
8FJ	.	]
=130	=130	=130
8FFL<	2an (2aan	<
8F	.	.
8AAn	.	.
8F	.	.
8C	4cc 4ccc	.
8FJ	.	[[
=131	=131	=131
8AAnL	2ff 2fff	>
8F	.	.
8C	.	.
8F	.	.
8E-	4cc 4ccc)	.
8FJ	.	]
=132	=132	=132
8BB-L	2.ee- (2.eee-	.
8F	.	.
8D-	.	.
8F	.	.
8BB-	.	.
8FJ	.	.
=133	=133	=133
8BB-L	4dd- 4ddd-)	.
8F	.	.
8D-	4r	.
8F	.	.
8BB-	4dd-	.
8FJ	.	.
!!LO:LB:g=original
=134	=134	=134
8AA-L	(2cc	<
8G-	.	.
8E-	.	.
8G-	.	.
!	!LO:TURN:lacc=n	!
8AA-	4ee-SSs	.
8G-J	.	[[
=135	=135	=135
8AA-L	2aa-	>
8G-	.	.
8C	.	.
8G-	.	.
8AA-	4ee-)	.
8G-J	.	]]
=136	=136	=136
4D- 4F	(4ff	.
4r	4een	.
4r	4gg-	.
*clefG2	*	*
=137	=137	=137
(4a-	4ff	.
4g-	4ee-X	.
4e-	4cc)	.
=138	=138	=138
4f	(4aa-	.
4en	4ggn	.
4g-	4bb-	.
=139	=139	=139
4f	4aa-	.
4e-X	4gg-	.
4c)	4ee-)	.
*clefF4	*	*
=140	=140	=140
(4d-	(4ff	.
4c	4een	.
4e-X	4gg-	.
=141	=141	=141
4d-	4ff	.
4c	4ee-X	.
4An)	4cc)	.
!!LO:LB:g=original
=142	=142	=142
(4B-	2.dd-	<
4d-	.	.
4A-X	.	.
=143	=143	=143
4Gn	2dd- 2bb-	.
4B-	.	.
4F)	4dd- 4bb-	.
=144	=144	=144
(4En	[2.ccz [2.bb-z	.
4G	.	.
4Dn	.	.
=145	=145	=145
4C\	2cc] 2bb-]	.
4D	.	.
4En)	(4g 4b-	.
=146	=146	=146
(4F	2.f) 2.a-	<
4A-	.	.
4E-X	.	.
=147	=147	=147
4D	2ff 2aa-	.
4F	.	.
4C	4ff 4aa-	.
=148	=148	=148
4BBn	[2.ffz [2.ggz	.
4D	.	.
4AAn	.	.
=149	=149	=149
4GG	2ff] 2gg]	.
4AAn	.	.
4BBn)	(4d 4f	.
=150	=150	=150
(4C	4c) 4e-	.
4E-/	4r	.
4BB-X	4r	.
!!LO:LB:g=original
=151	=151	=151
!	!	!LO:DY:rj
4AA-X	2cc 2ee- 2ccc	f
4C	.	.
4GG	4cc 4ee- 4ccc	.
=152	=152	=152
4FF	2.ccz 2.aa-z 2.cccz	.
4AA-	.	.
4EE-	.	.
=153	=153	=153
4DD	2ffz 2aa-z 2fffz	.
4FF	.	.
4CC	4ff 4aa- 4fff	.
=154	=154	=154
4BBBn	[2.ff [2.gg [2.ddd [2.fff	ff
4DD	.	.
4AAAn	.	.
=155	=155	=155
4GGG	2ff] 2gg] 2ddd] 2fff]	.
4AAAn	.	.
4BBBn	4ddz (4ffz	.
=156	=156	=156
4CC	2cc 2ee-)	.
4DD	.	.
4EE-	[4g/ [4ee-/	.
=157	=157	=157
*	*^	*
2FF	4g] (4ee-]	2a-	.
.	4f 4dd	.	.
4FF#)	4e- 4an 4cc	4ryyy	.
*	*v	*v	*
=158	=158	=158
4GG'	4d 4g 4bn)	.
4G'	4r	.
4r	4b 4dd 4gg	p
=159	=159	=159
4r	4a-X 4cc 4ff	.
!	!	!LO:DY:b=2:rj
4G	4r	p
4r	4g 4b-X 4ee-	.
!!LO:LB:g=original
=160	=160	=160
4r	4f 4a- 4dd	.
4G	4r	.
4r	4e- 4g 4cc	.
=161	=161	=161
4r	4d 4f 4bn	.
4G	4r	.
4r	4c 4e- 4a-	.
=162	=162	=162
4r	4Bn 4d 4g	.
4GG	4r	.
4r	4bn 4dd 4gg	>
=163	=163	=163
4r	4a-X 4cc 4ff	.
4GG	4r	.
4r	4g 4b-X 4ee-	.
=164	=164	=164
4r	4f 4a- 4dd	.
4GG	4r	.
4r	4e- 4g 4cc	.
=165	=165	=165
4r	4d 4f 4bn	.
4GG	4r	.
4r	4c 4e- 4a-	.
=166	=166	=166
4r	4Bn 4d 4g	.
4GGG 4GG	4r	.
4r	4A- 4c 4f	.
=167	=167	=167
4r	4G 4c 4e-	.
4GGG 4GG	4r	.
4r	4F 4Bn 4d	.
=168	=168	=168
4.CC 4.EE- 4.GG 4.C	4.E- 4.G 4.c	f
8r	16r	.
.	(16gLK	.
4r	8.ee-	.
.	16ccJk	.
!!LO:LB:g=original
=169	=169	=169
2.r	8.ggL	.
.	16ee-k	.
.	8.ccc	.
.	16ggJk)	.
.	4eee-'	.
=170	=170	=170
4r	4eee-'	.
4r	4r	.
*clefG2	*	*
4c' 4e-'	4g'\ 4cc'\	p
=171	=171	=171
(2c 2e-	[2g (>2cc	.
4d) 4f	4g] 4bn)	.
*clefF4	*	*
=172	=172	=172
4.D 4.F 4.A- 4.Bn 4.d	4.f 4.a- 4.bn	f
8r	16r	.
.	(16bLK	.
4r	8.ff	.
.	16ddJk	.
=173	=173	=173
2.r	8.bbnL	.
.	16ffk	.
.	8.ddd	.
.	16bbJk)	.
.	4fff'	.
=174	=174	=174
4r	4fff'	.
4r	4r	.
*clefG2	*	*
4d' 4f' 4a-'	4bn' 4dd'	p
=175	=175	=175
((2d/ 2f/ 2a-/	2bn (2dd	.
4e- 4g))	4cc)	.
!!LO:LB:g=original
=176	=176	=176
.	(32gqLLL	.
.	32ccq	.
.	32ee-qJJJ)	.
4r	(4.gg	.
4r	.	.
.	8ff	.
*clefF4	*	*
4E- 4G (4c	4ee-	.
=177	=177	=177
2F 2A- 2Bn	2dd	.
4E- 4G 4c)	4cc)	.
=178	=178	=178
.	(32gqLLL	.
.	32ccq	.
.	32ee-qJJJ	.
4r	()4.gg	.
4r	.	.
.	8ff	.
*clefG2	*	*
(4e- 4g	4cc 4ee-	.
=179	=179	=179
2f 2a-	2bn 2dd	.
4e-) 4g	4cc)	.
=180	=180	=180
.	((32gqLLL	.
.	32ccq	.
.	32ee-qJJJ	.
!	!	!LO:DY:rj
4r	(4.g 4.gg))	rfz
4r	.	.
.	8f 8ff)	.
*clefF4	*	*
4E- 4G 4c	[4e-\ [4ee-\	.
=181	=181	=181
2F 2A- (2Bn	4e-\] (4ee-\]	.
.	4d'\ 4dd'\)	.
4E- 4G	[4c [4cc	.
=182	=182	=182
2D 2F	(4c] 4cc]	.
.	4Bn') 4bn'	.
4C 4E-	[4A- [4a-	.
=183	=183	=183
4BBn\ 4D\)	(4A-] 4a-]	.
4r	4G') 4g'	.
4r	4r	.
!!LO:LB:g=original
=184	=184	=184
4r	4r	.
!	!	!LO:DY:rj
4r	(12BnL	pp
.	12d	.
.	12fJ	.
4BBn 4D 4F (4A-	12a-L	.
.	12g	.
.	12fJ	.
=185	=185	=185
4C' 4E-' 4G')	4e-')	.
4r	4r	.
4r	4r	.
=186	=186	=186
4r	4r	.
4r	(12FL	.
.	12A-	.
.	12dJ	.
(4FF 4AA- 4D	12fL	.
.	12e-	.
.	12dJ	.
=187	=187	=187
4GG') 4C' 4E-'	4c')	.
4r	4r	.
4r	4r	.
=188	=188	=188
4r	4r	.
!	!	!LO:DY:rj
4r	(12GL	ff
.	12Bn	.
.	12dJ	.
4GGG ((4GG	12fL	.
.	12d	.
.	12BJ	.
=189	=189	=189
4CC' 4C'))	4c')	.
4r	4r	.
4r	4r	.
=190	=190	=190
2.r	2.r	.
!!LO:LB:g=original
=191	=191	=191
!	!	!LO:DY:b=2
(<[2.d-	2.r	fp
=192	=192	=192
*^	*^	*
2.d-_	2.c-	4r	4ryy	.
.	.	(4f	2f	.
.	.	4dd-)	.	.
=193	=193	=193	=193	=193
2.d-X]	2.B-	2dd-	2.g-	.
.	.	[4dd-	.	.
*v	*v	*	*	*
=194	=194	=194	=194
(2.A- 2.c-	(4dd-X]	2.f	.
.	4ee-	.	.
.	([4cc-)	.	.
=195	=195	=195	=195
2.G-) 2.d-)	4cc-]	2.g-	.
.	4an	.	.
.	4b-)	.	.
*clefG2	*	*	*
=196	=196	=196	=196
*^	*	*	*
!	!	!	!	!LO:DY:b=2
[2.dd-	(2.cc-	4r	4ryy	fp
.	.	(4ff	2ff	.
.	.	4ddd-)	.	.
=197	=197	=197	=197	=197
2.dd-]	2.b-	2ddd-	2.gg-	.
.	.	[4ddd-	.	.
*v	*v	*	*	*
=198	=198	=198	=198
2.a- 2.cc-	(4ddd-]	2.ff	.
.	4eee-	.	.
.	[4ccc-)	.	.
=199	=199	=199	=199
2.g-) 2.dd-	(4ccc-]	2.gg-	.
.	4aan	.	.
.	4bb-)	.	.
!!LO:LB:g=original
=200	=200	=200	=200
*^	*	*	*
!	!	!	!	!LO:DY:b=2
[2.b-	(2.a-X	4r	4ryyy	fp
.	.	(4ddn	2ddn	.
.	.	4bb-)	.	.
*v	*v	*	*	*
=201	=201	=201	=201
2.g- 2.b-]	2bb-	2.ee-	.
.	[4bb-	.	.
=202	=202	=202	=202
2.f 2.a-	(4bb-]	2.dd	<
.	4ccc-	.	.
.	[4aa-)	.	.
=203	=203	=203	=203
2.e- 2.g-	(4aa-]	2.b-	.
.	4ff	.	.
.	[4gg-)	.	.
=204	=204	=204	=204
2.d- 2.f	(4gg-]	2.bn	[ >
.	4aa-	.	.
.	[4ff)	.	.
=205	=205	=205	=205
2.c 2.gn	(4ff]	2.cc	.
.	4ff	.	.
.	[4een)	.	.
=206	=206	=206	=206
2.Bn)	(4ee]	2a-	.
.	4ff	.	.
.	4a-)	4f	]
*clefF4	*	*	*
*	*v	*v	*
=207	=207	=207
*^	*	*
(4c	[2.C	4en 4g	p
4G	.	4r	.
4A-	.	4r	.
!!LO:LB:g=original
=208	=208	=208	=208
4B-	2.C]	4r	.
4F	.	4dd-	.
4G	.	4dd-	.
=209	=209	=209	=209
4A-	[2.C	(4dd-	.
4En	.	4cc)	.
4F	.	4r	.
=210	=210	=210	=210
4G	2.C]	4r	.
4D	.	4b-	.
4En	.	4b-	.
=211	=211	=211	=211
4F	[2.C	(4b-	.
4G	.	4an\)	.
4An	.	4r	.
=212	=212	=212	=212
4B-	2.C]	8r	.
.	.	(8ddnL	.
4F#	.	8cc#	.
.	.	8dd	.
4G	.	8een	.
.	.	8ddJ)	.
=213	=213	=213	=213
4An	[2.C	8r	.
.	.	(8ccL	.
4En	.	8bn	.
.	.	8cc	.
4Fn	.	8dd	.
.	.	8ccJ)	.
=214	=214	=214	=214
4G	2.C]	8r	.
.	.	(8b-XL	.
4D	.	8an	.
.	.	8b-	.
4En)	.	8cc	.
.	.	8b-J)	.
*v	*v	*	*
!!LO:LB:g=original
=215	=215	=215
8FL	[2.an	.
8c	.	.
8An	.	.
8c	.	.
8G	.	.
8cJ	.	.
=216	=216	=216
8FL	(4.a]	.
8c	.	.
8G	.	.
8c	8cc	.
8An	4ff)	.
8cJ	.	.
=217	=217	=217
8GL	(2.ff	.
8c	.	.
8An	.	.
8c	.	.
8B-	.	.
8cJ	.	.
=218	=218	=218
8GL	4een')	.
8c	.	.
8An	4r	.
8c	.	.
8B-	4r	.
8cJ	.	.
=219	=219	=219
8EnL	2.cc	.
8c	.	.
8G	.	.
8c	.	.
8F	.	.
8cJ	.	.
=220	=220	=220
8EnL	(4.ccsSSs	.
8c	.	.
8F	.	.
8c	8gg	.
8G	4bb-)	.
8cJ	.	.
=221	=221	=221
8FL	(2.bb-	.
8c	.	.
8G	.	.
8c	.	.
8An	.	.
8cJ	.	.
!!LO:LB:g=original
=222	=222	=222
8FL	4aan')	.
8c	.	.
8G	4r	.
8c	.	.
8An	4r	.
8cJ	.	.
=223	=223	=223
8FL	8an'L	.
8c	8b-'	.
8An	8cc'	.
8c	8dd'	.
8F	8een'	.
8cJ	8ff'J	.
=224	=224	=224
8FL	8gg'L	.
8c	8aan'	.
8An	8bb-'	.
8c	8ccc'	.
8F	8ddd'	.
8cJ	8eeen'J	.
=225	=225	=225
8GL	(2.fffz	.
8c	.	.
8B-	.	.
8c	.	.
8G	.	.
8cJ	.	.
=226	=226	=226
8GL	4eeen')	.
8c	.	.
8B-	4r	.
8c	.	.
8G	4r	.
8cJ	.	.
=227	=227	=227
8EnL	8c'L	.
8c	8d'	.
8G	8en'	.
8c	8f'	.
8E	8g'	.
8cJ	8an'J	.
=228	=228	=228
8EnL	8b-'L	.
8c	8cc'	.
8G	8dd'	.
8c	8een'	.
8E	8ff'	.
8cJ	8gg'J	.
!!LO:LB:g=original
=229	=229	=229
8FL	[2.aa-Xz	.
8c	.	.
8G	.	.
8c	.	.
8A-X	.	.
8cJ	.	.
=230	=230	=230
8FL	(4aa-]	.
8c	.	.
8G	4gg	.
8c	.	.
8A-	4ff)	.
8cJ	.	.
=231	=231	=231
8GL	(2.ee-XSSs	.
8e-X	.	.
8c	.	.
8e-	.	.
8G	.	.
8e-J	.	.
=232	=232	=232
8GL	4gg	.
8d	.	.
8Bn	4ff	.
8d	.	.
8G	4dd)	.
8dJ	.	.
=233	=233	=233
8CL	[2.e-\ [2.ee-\	f
8G	.	.
8E-	.	.
8G	.	.
8D	.	.
8GJ	.	.
=234	=234	=234
8CL	4.e-\] (4.ee-\]	.
8G	.	.
8D	.	.
8G	8g 8gg	.
8E-	4cc 4ccc)	.
8GJ	.	.
!!LO:LB:g=original
=235	=235	=235
8DL	2.ccz ((2.cccz	.
8G	.	.
8E-	.	.
8G	.	.
8F	.	.
8GJ	.	.
=236	=236	=236
8DL	4bn' 4bbn'))	.
8G	.	.
8E-	4r	.
8G	.	.
8F	4r	.
8GJ	.	.
=237	=237	=237
8BBnL	[2.g [2.gg	.
8G	.	.
8D	.	.
8G	.	.
8C	.	.
8GJ	.	.
=238	=238	=238
8BBnL	4.g] (4.gg]	.
8G	.	.
8C	.	.
8G	8dd 8ddd	.
8D	4ff 4fff)	.
8GJ	.	.
=239	=239	=239
8CL	2.ff ((2.fff	.
8G	.	.
8D	.	.
8G	.	.
8E-	.	.
8GJ	.	.
=240	=240	=240
8CL	4ee-' 4eee-'))	.
8G	.	.
8D	4r	.
8G	.	.
8E-	4r	.
8GJ	.	.
!!LO:LB:g=original
=241	=241	=241
8CL	(8e-L<	.
8G	8g	.
8E-	8cc	.
8G	8g	.
8C	8cc	.
8GJ	8ee-J	.
=242	=242	=242
8CL	8ccL	.
8G	8ee-	.
8E-	8gg	.
8G	8ee-	.
8C	8gg	.
8GJ	8cccJ)	.
=243	=243	=243
8DL	(2.ccc	.
8G	.	.
8F	.	.
8G	.	.
8D	.	.
8GJ	.	.
=244	=244	=244
8DL	4bbn')	.
8G	.	.
8F	4r	.
8G	.	.
8D	4r	.
8GJ	.	.
=245	=245	=245
8BBnL	(8GL	.
8G	8Bn	.
8D	8d	.
8G	8B	.
8BB	8d	.
8GJ	8gJ	.
=246	=246	=246
8BBnL	8dL<	.
8G	8g	.
8D	8bn	.
8G	8g	.
8BB	8b	.
8GJ	8ddJ)	.
=247	=247	=247
8r	4ee-	<
8CL	.	.
8BBn	4r	.
8C	.	.
8BB	[4cccz	.
8CJ	.	.
!!LO:LB:g=original
=248	=248	=248
8EEnL	2ccc]	.
8C	.	.
8FF	.	.
8C	.	.
*	*clefF4	*clefF4
8GG	4En	.
8CJ	.	.
=249	=249	=249
8FFL	2.Fz	.
8C	.	.
8GG	.	.
8C	.	.
8AA-	.	.
8CJ	.	.
=250	=250	=250
8FF#L	2.F#z	.
8C	.	.
8GG	.	.
8C	.	.
8AAn	.	.
8CJ	.	.
=251	=251	=251
8GGL	2.Gz	.
8E-	.	.
8C	.	.
8E-	.	.
8GG	.	.
8E-J	.	.
=252	=252	=252
8GGL	2.FnT	.
8D	.	.
8BBn	.	.
8D	.	.
8GG	.	.
8DJ	.	.
.	(16EnqLL	.
.	16FqJJ)	.
=253	=253	=253
4CC 4C	8E-XL	.
.	8G	.
4r	8c	.
.	8G	.
4r	8c	.
.	8e-J	.
*	*clefG2	*clefG2
=254	=254	=254
2.r	8gL	.
.	8e-	.
.	8g	.
.	8cc	.
.	8ee-	.
.	8ggJ	.
!!LO:LB:g=original
=255	=255	=255
8EE-L	4ccc'	f
8C	.	.
8FF	4r	.
8C	.	.
8GG	[4c<z	.
8CJ	.	.
=256	=256	=256
8EEnL	(2c<]	.
8C	.	.
8FF	.	.
8C	.	.
8GG	4En<	.
8CJ	.	.
=257	=257	=257
8FFL	2F<)	.
8C	.	.
8GG	.	.
8C	.	.
8AA-	(4c<z	.
8CJ	.	.
=258	=258	=258
8FF#L	2F#<)	.
8C	.	.
8GG	.	.
8C	.	.
8AAn	(4c<z	.
8CJ	.	.
=259	=259	=259
(8GGL	(8G<L)	.
8C	8c<	<
8BBn	8Bn<	.
8C	8c<	.
8GG	8G<	.
8CJ	8c<J	.
=260	=260	=260
8AA-L	8A-<L	.
8C	8c<	.
8BBn	8Bn<	.
8C	8c<	.
8FF#	8F#<	.
8CJ)	8c<J)	.
=261	=261	=261
(8GGL	(8G<L	ff
8C	8c<	.
8BBn	8Bn<	.
8C	8c<	.
8EEn	8En<	.
8CJ	8c<J	.
!!LO:LB:g=original
=262	=262	=262
8FFL	8F<L	.
8C	8c<	.
8AA-	8A-<	.
8C	8c<	.
8FF#	8F#<	.
8CJ)	8c<J)	.
=263	=263	=263
4GG	4G<	.
4G' 4c' 4e-'	8.r	.
.	(16gLK	.
4r	8.ee-	.
.	16ccJk)	.
=264	=264	=264
4r	4ff#'z	.
4A-' 4c' 4e-'	8.r	.
.	(16f#XLK	.
4r	8.ee-	.
.	16ccJk)	.
=265	=265	=265
4r	4gg'z	.
4G' 4c' 4e-'	8.r	.
.	(16gLK	.
4r	8.ee-	.
.	16ccJk)	.
=266	=266	=266
4r	4aan'	.
4F#' 4c' 4e-'	8.r	.
.	(16anLK	.
4r	8.ee-	.
.	16ccJk)	.
=267	=267	=267
4r	(4.gg	ff
4G' 4c' 4e-'	.	.
.	8ee-)	.
4r	(8ee-L	.
.	8ccJ)	.
=268	=268	=268
2.r	(8ccL	.
.	8gJ)	.
.	(8gL	.
.	8e-J)	.
.	(8e-L	.
.	8cJ)	.
!!LO:LB:g=original
=269	=269	=269
2.rGG	(<8c<L	.
.	8G<J)	.
.	(<8G<L	.
.	8E-<J)	.
.	(<8E-<L	.
.	8C<J)	.
=270	=270	=270
!	!	!LO:DY:rj:b=2
2.GGG 2.GG	4rc<	ff
.	4rc<	.
.	(4D< 4F< [4G< 4Bn<z	.
=271	=271	=271
*^	*	*
4ryy	(4CC	4E-< 4G<] 4c<)	.
!	!	!	!LO:DY:a=2
[>/2GG	4GG	4r	fp
.	4FF#	4r	.
*	*	*clefG2	*clefG2
=272	=272	=272	=272
2.GG]	4FFn	4r	.
.	4EE-	4Bn 4d 4f 4g	p
.	4DD)	4B 4d 4f 4g	.
*v	*v	*	*
=273	=273	=273
*	*^	*
(4CC	(4a-	2c 2e-	.
4EE-	4g)	.	.
4GG	4r	4ryyy	.
*	*v	*v	*
=274	=274	=274
4GGG	4r	.
4DD	4d 4f 4bn	.
4GG)	4d 4f 4b	.
=275	=275	=275
*^	*^	*
4ryy	(<4CC	(4dd	2e- 2g	.
!	!	!	!	!LO:DY:a=2
[2GG	4GG	4cc)	.	fp
.	4FF#	4r	4ryyy	.
*	*	*v	*v	*
=276	=276	=276	=276
2.GG]	4FFn	4r	.
.	4EE-	4Bn 4d 4f 4g	p
.	4DD)	4B 4d 4f 4g	.
*v	*v	*	*
!!LO:LB:g=original
=277	=277	=277
*	*^	*
(<4CC	(4a-	2c 2e-	.
4EE-	4g)	.	.
4GG	4r	4ryyy	.
*	*v	*v	*
=278	=278	=278
4GGG	4rc<	.
4DD	4D< 4F< 4Bn<	p
4GG)	4D< 4F< 4B<	.
=279	=279	=279
*^	*	*
2E- 2G	(4CC	(4d<	.
.	4EE-	4c<)	.
4ryy	4GG	4re<	.
*v	*v	*	*
=280	=280	=280
4GGG	4rc<	.
4DD	4D< 4F< 4Bn<	.
4GG)	4D< 4F< 4B<	.
=281	=281	=281
4CC	4E-< 4G< 4c<	.
4rCC	4re<	.
4rCC	4re<	.
=282	=282	=282
4GGG 4BBBn 4DD 4GG	4g 4bn 4dd 4gg	ff
4r	4r	.
4r	4r	.
=283	=283	=283
4CC 4EE- 4GG 4C	4c 4e- 4g 4cc	.
4r	4r	.
4r	4r	.
=284	=284	=284
2.r;	2.r;	.
==	==	==
*-	*-	*-
!!!RDF**kern: > = above
!!!RDF**kern: < = below
!!!verovio: beamFrenchStyle
!!!LOR: Durand 1915, plates 9327/9328, Paul Dukas, ed.
!!!PED: Dukas, Paul
!!!URL-vhv: https://verovio.humdrum.org/?file=beethoven/sonatas/sonata05-1.krn
!!!URL-pdf: https://github.com/craigsapp/beethoven-piano-sonatas/blob/master/reference-edition/sonata05-1.pdf
!!!ENC: Craig Stuart Sapp
!!!END: 2004/08/31
!!!EED: Craig Stuart Sapp
!!!EEV: 2021/02/13
